X:049
T:Irish Jig
T:Connachtman's Rambles
D:Peter Wyper 78rpm 
Z:Nigel Gatherer
M:6/8
L:1/8
K:D
A|FAA dAA|BAB dAA|FAA Afe|dBB BAG|FAA dAA|
BAB def|gfe f2e|dBB B2::A|Bbb faa|fbb afe|
fbb faa|fef A2e|fbb faa|fbb afe|fef agf|edc B2:|
<end>
<start>
